src/assets/svg/icons/fa/nuevos/classic/thin/claw-marks classic thin.svg

<svg xmlns="http://www.w3.org/2000/svg" viewBox="0 0 576 512"><path d="M34.34 2.343C37.47-.781 42.53-.781 45.66 2.343L165.3 121.9C177.3 133.9 184 150.2 184 167.2V200H216.8C233.8 200 250.1 206.7 262.1 218.7L357.3 313.9C369.3 325.9 376 342.2 376 359.2V392H408.8C425.8 392 442.1 398.7 454.1 410.7L541.7 498.3C544.8 501.5 544.8 506.5 541.7 509.7C538.5 512.8 533.5 512.8 530.3 509.7L442.7 422.1C433.7 413.1 421.5 408 408.8 408H368C363.6 408 360 404.4 360 400V359.2C360 346.5 354.9 334.3 345.9 325.3L250.7 230.1C241.7 221.1 229.5 216 216.8 216H176C171.6 216 168 212.4 168 208V167.2C168 154.5 162.9 142.3 153.9 133.3L34.34 13.66C31.22 10.53 31.22 5.467 34.34 2.343V2.343zM34.34 226.3C37.47 223.2 42.53 223.2 45.66 226.3L135.6 316.3C146.1 326.8 151.1 341 151.1 355.9V392H188.1C202.1 392 217.2 397.9 227.7 408.4L317.7 498.3C320.8 501.5 320.8 506.5 317.7 509.7C314.5 512.8 309.5 512.8 306.3 509.7L216.4 419.7C208.9 412.2 198.7 408 188.1 408H144C139.6 408 136 404.4 136 400V355.9C136 345.3 131.8 335.1 124.3 327.6L34.34 237.7C31.22 234.5 31.22 229.5 34.34 226.3V226.3zM295.6 28.28C306.1 38.79 312 53.03 312 67.88V104H348.1C362.1 104 377.2 109.9 387.7 120.4L423.6 156.3C434.1 166.8 440 181 440 195.9V232H476.1C490.1 232 505.2 237.9 515.7 248.4L541.7 274.3C544.8 277.5 544.8 282.5 541.7 285.7C538.5 288.8 533.5 288.8 530.3 285.7L504.4 259.7C496.9 252.2 486.7 247.1 476.1 247.1H432C427.6 247.1 424 244.4 424 239.1V195.9C424 185.3 419.8 175.1 412.3 167.6L376.4 131.7C368.9 124.2 358.7 119.1 348.1 119.1H304C299.6 119.1 296 116.4 296 111.1V67.88C296 57.27 291.8 47.1 284.3 39.6L258.3 13.66C255.2 10.53 255.2 5.467 258.3 2.343C261.5-.781 266.5-.781 269.7 2.343L295.6 28.28z"/></svg>

<svg xmlns="http://www.w3.org/2000/svg" viewBox="0 0 576 512"><!--! Font Awesome Pro 6.4.0 by @fontawesome - https://fontawesome.com License - https://fontawesome.com/license (Commercial License) Copyright 2023 Fonticons, Inc. --><path d="M34.3 2.3c3.1-3.1 8.2-3.1 11.3 0L165.3 121.9c12 12 18.7 28.3 18.7 45.3V200h32.8c17 0 33.3 6.7 45.3 18.7l95.2 95.2c12 12 18.7 28.3 18.7 45.3V392h32.8c17 0 33.3 6.7 45.3 18.7l87.6 87.6c3.1 3.1 3.1 8.2 0 11.3s-8.2 3.1-11.3 0l-87.6-87.6c-9-9-21.2-14.1-33.9-14.1H368c-4.4 0-8-3.6-8-8V359.2c0-12.7-5.1-24.9-14.1-33.9l-95.2-95.2c-9-9-21.2-14.1-33.9-14.1H176c-4.4 0-8-3.6-8-8V167.2c0-12.7-5.1-24.9-14.1-33.9L34.3 13.7c-3.1-3.1-3.1-8.2 0-11.3zm0 224c3.1-3.1 8.2-3.1 11.3 0l89.9 89.9C146.1 326.8 152 341 152 355.9V392h36.1c14.9 0 29.1 5.9 39.6 16.4l89.9 89.9c3.1 3.1 3.1 8.2 0 11.3s-8.2 3.1-11.3 0l-89.9-89.9c-7.5-7.5-17.7-11.7-28.3-11.7H144c-4.4 0-8-3.6-8-8V355.9c0-10.6-4.2-20.8-11.7-28.3L34.3 237.7c-3.1-3.1-3.1-8.2 0-11.3zM269.7 2.3l25.9 25.9C306.1 38.8 312 53 312 67.9V104h36.1c14.9 0 29.1 5.9 39.6 16.4l35.9 35.9C434.1 166.8 440 181 440 195.9V232h36.1c14.9 0 29.1 5.9 39.6 16.4l25.9 25.9c3.1 3.1 3.1 8.2 0 11.3s-8.2 3.1-11.3 0l-25.9-25.9c-7.5-7.5-17.7-11.7-28.3-11.7H432c-4.4 0-8-3.6-8-8V195.9c0-10.6-4.2-20.8-11.7-28.3l-35.9-35.9c-7.5-7.5-17.7-11.7-28.3-11.7H304c-4.4 0-8-3.6-8-8V67.9c0-10.6-4.2-20.8-11.7-28.3L258.3 13.7c-3.1-3.1-3.1-8.2 0-11.3s8.2-3.1 11.3 0z"/></svg>
